!!!ONB: MCCC : IJH0463_02 : Extracted Monophonic Melody
!!!COM: Haydn, Joseph
!!!OPR: String Quartet in G major
!!!OMV: 2
!!!SCT: Hob.III:58 ; Op.54 No.1
!!!ODT: 1788///
**kern
*thru
*k[]
*C:
*clefG
*M6/8
4c
2r
=1
8g
8cc
8cc
8cc
8b
8cc
=2
8.dd
16ee
8dd
8dd
4r
=3
16cc#
16dd
16ee
16dd
16ff
16ee
8dd
4r
=4
8g
8dd
8dd
8dd
8cc
8dd
=5
8.ee
16ff
8ee
8ee
4r
=6
16dd#
16ee
16ff
16ee
16aa
16gg
8gg
4r
=7
16bb
16ccc
16ddd
16ccc
16eee
16ccc
8gg
4r
=8
8gg
8ccc
8ccc
8ccc
8bb
8ccc
=9
4.bb-
4aa
8gg
=10
8gg
8ff#
8ff
8ee
8dd
8cc
=11
8b
8cc
8cc#
8dd
4r
=12
16cc#
16dd
16ff
16ee
16gg
16ff
8aa
8aa
8aa
=13
16cc#
16dd
16ff
16ee
16gg
16ff
4.aa
=14
16cc#
16dd
16ff
16ee
16gg
16ff
16bb-
16aa
16gg
16ff
16ee
16dd
=15
16cc#
16dd
16ff
16ee
16gg
16ff
4.aa
=16
8gg
16aa
16bb
16ccc
16ddd
16eee
16fff
16ggg
16aaa
16bbb
16cccc
=17
4.cccc
8aaa
8fff
8ddd
=18
4.ccc
8ddd
8ccc
8ddd
=19
8.ccc
16gg
8eee
8ccc
4r
=20
4A
2r
=21
2e
8cc
8a
=22
4..e
16ee
16b
16cc
16g#
16a
=23
2d
8b
8g
=24
8e
8ee
8cc
8b
8a
8g
=25
8f#
8g
8g#
4a
8r
=26
16g#
16a
16cc
16b
16dd
16cc
8ee
8ee
8ee
=27
16g#
16a
16cc
16b
16dd
16cc
4.ee
=28
16g#
16a
16b-
16b
16cc
16cc#
16dd
16dd#
16ee
16dd
16cc
16b
=29
16g#
16a
16cc
16b
16dd
16cc
4.ee
=30
16cc#
16dd
16gg
16ff#
16bb
16aa
16gg
16ff#
16ff
16ee
16ee-
16dd
=31
16dd#
16ee
16ff#
16gg
16dd#
16ee
16b
16cc
16g#
16a
16cc
16a
=32
4.g
4.a
=33
4g
2r
=34
2.r
=35
2.r
=36
8g
8g
8g
8g
8g
8g
=37
8f
8f
8f
8f
8g
8a
=38
4b-
2r
=39
2.r
=40
2.r
=41
8b-
8b-
8b-
8b-
8b-
8b-
=42
8a-
8a-
8a-
8a-
8b-
8cc
=43
4dd-
2r
=44
8g
8g
8g
8a-
8a-
8a-
=45
8a
8a
8a
8b-
8b-
8b-
=46
8b
8dd
8dd
8dd
8gg
8gg
=47
8gg
8bb
8bb
8bb
8ddd
8ddd
=48
8ddd
16ccc#
16ddd
16ccc
16bb
16aa
16gg
16ff#
16gg
16bb
16aa
=49
16gg
16ff#
16ee
16dd
16cc
16b
16a
16g
16f#
16e
16d
16c#
=50
4.d
4.aa
=51
4gg
8ff#
8ff
8ee
8ee-
=52
4dd
8cc#
8cc
8a
8f#
=53
4g
8b
8g
4r
=54
8e
8e
8e
8e
8e
8e
=55
2e
8cc
8a
=56
4..e
16ee
16b
16cc
16g#
16a
=57
2d
8b-
8g
=58
4..dd
16bb-
16ff#
16gg
16aa
16gg
=59
2dd
8ff
8ff
=60
8r
8ee
8ee
8r
8gg
8gg
=61
8r
8gg#
8gg#
8r
8aa
8aa
=62
2gg
8ddd
8bb
=63
2gg
8eee
8ccc
=64
2gg
8fff
8ddd
=65
8r
8fff
8ddd
8r
8fff
8ddd
=66
8.fff
16eee
16ddd
16ccc
16bb
16aa
16gg
16ff
16ee
16dd
=67
8cc
8b
8a
8g
8f#
8f
=68
4e
2r
=69
8g
8cc
8cc
8cc
8b
8cc
=70
8.dd
16ee
8dd
8dd
4r
=71
16cc#
16dd
16ee
16dd
16ff
16ee
8dd
4r
=72
8g
8dd
8dd
8dd
8cc
8dd
=73
8.ee
16ff
8ee
8ee
4r
=74
16dd#
16ee
16ff
16ee
16aa
16gg
8gg
4r
=75
16bb
16ccc
16ddd
16ccc
16eee
16ccc
8gg
4r
=76
8gg
8ccc
8ccc
8ccc
8bb
8ccc
=77
4.bb-
4aa
8gg
=78
8gg
8ff#
8ff
8ee
8dd
8cc
=79
8b
8cc
8cc#
8dd
4r
=80
16cc#
16dd
16ff
16ee
16gg
16ff
8aa
8aa
8aa
=81
16cc#
16dd
16ff
16ee
16gg
16ff
8aa
4r
=82
16cc#
16dd
16ff
16ee
16gg
16ff
16bb-
16aa
16gg
16ff
16ee
16dd
=83
16cc#
16dd
16ff
16ee
16gg
16ff
4.aa
=84
8gg
16aa
16bb
16ccc
16ddd
16eee
16fff
16ggg
16aaa
16bbb
16cccc
=85
4.cccc
8aaa
8fff
8ddd
=86
4.ccc
8ddd
8ccc
8ddd
=87
4ccc
2r
=88
2.r
=89
2.r
=90
8cc
8cc
8cc
8cc
8cc
8cc
=91
8b-
8b-
8b-
8b-
8cc
8dd
=92
4ee-
2r
=93
2.r
=94
2.r
=95
8ee-
8ee-
8ee-
8ee-
8ee-
8ee-
=96
8dd-
8dd-
8dd-
8dd-
8ee-
8ff
=97
4gg-
2r
=98
8cc
8cc
8cc
8dd-
8dd-
8dd-
=99
8dd
8dd
8dd
8ee-
8ee-
8ee-
=100
8ee
8gg
8gg
8gg
8ccc
8ccc
=101
8ccc
8eee
8eee
8eee
8ggg
8ggg
=102
8.ggg
16fff
16eee
16ddd
16ccc
16bb
16aa
16gg
16ff
16ee
=103
16ccc
16bb
16aa
16gg
16ff
16ee
16dd
16cc
16b
16a
16g
16f
=104
4.e
4.e-
=105
2.d
=106
4.c
16c#
16d
16f
16d
16a
16f
=107
8e
8e
8e
16c#
16d
16e
16d
16f
16d
=108
8c
4r
16cc#
16dd
16ff
16dd
16aa
16ff
=109
16ee
16gg
16ff
16ee
16dd
16cc
16b
16a
16g
16f
16e
16d
=110
8c
8r
8e
8c
8c
8c
=111
4c
2r
==
*-
